X:1
T:Title
%%score { ( 1 2 ) | ( 3 4 ) }
L:1/8
M:4/4
K:Eb
V:1 treble nm="Grand Piano"
V:2 treble 
V:3 bass 
V:4 bass 
V:1
 z4 z2[Q:1/4=100] z F | G3 G AGFG | E4 B,2 EG | [GB]3 [GB] [Ac][GB][GB][EG] |[M:3/4] [DF]6 | %5
[M:1/4] GA |[M:4/4] B3 [GB] [Ac][GB][Ac][Ad] | e4 .[EB]2 [Ac]2 | [GB]3 A GFED |[M:3/4] E6 | %10
[M:1/4] G>B |[M:4/4] A6 z2 | G6 z2 | G2 G>F E2 DC |[M:3/4] [=B,G]6 |[M:1/4] A>G |[M:4/4] A6 z2 | %17
 G6 z2 | c2 f2 e2 [Fd]2 |[M:3/4] e-[Ge-] [Ae-][Ae-] [Ge]2 |] %20
V:2
 z4 z2 E2 | x8 | x8 | x8 |[M:3/4] x6 |[M:1/4] x2 |[M:4/4] x8 | G6 z2 | x8 |[M:3/4] z B, CC B,2 | %10
[M:1/4] x2 |[M:4/4] z2 D>D D2 F>A | z2 E>E E2 EF | x8 |[M:3/4] x6 |[M:1/4] x2 | %16
[M:4/4] z2 D>D D2 G>F | z2 E>E E2 [GB]2 | x8 |[M:3/4] .G2 z2 z2 |] %20
V:3
 z4 z2 G,A, | [E,B,E]3 [E,B,E] [E,CE][E,B,E][E,A,E][E,B,E] | B,4 z2 [G,B,][B,E] | %3
 [E,E]3 [E,E] [E,E][E,E][E,E][E,B,] |[M:3/4] [B,,B,]6 |[M:1/4] B,-[F,B,D] | %6
[M:4/4] [G,B,E]3 [E,B,] [E,E][E,E][A,E][F,B,] | B,4 z4 | %8
 [E,E]3[K:treble] [A,EF] [B,E][K:bass][B,,A,B,][B,,G,B,][B,,F,B,] |[M:3/4] .[G,B,]2 z2 z2 | %10
[M:1/4] z2 |[M:4/4] z2 [B,,F,]>[B,,F,] [B,,F,]2 z2 | z2 [E,B,]>[E,B,] [E,B,]2 E,F, | %13
 G,2 G,>F, E,2 D,C, |[M:3/4] [G,,D,]6 |[M:1/4] z2 |[M:4/4] z2 [B,,B,]>[B,,B,] [B,,B,]2 z2 | %17
 z2 [E,B,]>[E,B,] [E,B,]2 [E,E]2 | [A,EA]2 [A,CA]2 [B,G]2[K:bass] [B,,B,]2 |[M:3/4] .B,2 z2 z2 |] %20
V:4
 z4 z2 E,2 | x8 | [E,G,]6 E,2 | x8 |[M:3/4] x6 |[M:1/4] [E,E] z |[M:4/4] x8 | E,6 [E,E]2 | %8
 x3[K:treble] x2[K:bass] x3 |[M:3/4] E,-[E,-G,] [E,-A,][E,-A,] [E,G,]2 |[M:1/4] x2 |[M:4/4] x8 | %12
 x8 | x8 |[M:3/4] x6 |[M:1/4] x2 |[M:4/4] x8 | x8 | x6[K:bass] x2 | %19
[M:3/4] E,-[E,-B,] [E,-C][E,-C] [E,B,]2 |] %20

